!!!OTL: Zug der Hilfstruppen nach Portugal. (1580.) / (Landsknechtslied.)
!!!ARE: Europa, Mitteleuropa, Deutschland
!!!SCT: A0413
!!!TXL: @@DE
!!!YEM: Copyright 1995, estate of Helmut Schaffrath.
**kern	**text
*M4/2	*
*met(c|)	*
*k[f#]	*
*G:ion	*
!LO:TX:a:t=Mel. Ziehen wir in Portugall.	!
!LO:TX:a:t=G dur (jon.)	!
{2g	1._Was
=1	=1
2g	ſol
2g	ich
2f#	a-
2g	-ber
=2	=2
2.a	he-
4b/	-ben
2g}	an,
{2g	aufs
=3	=3
2f#	beſt
2e	ſo
2f#	ichs
2g	ge-
=4	=4
2.a	-ler-
4g	-net
2g	han
4r}	.
{4cc	ein
=5	=5
2b/	neu-
2a	-es
2g	Lied
2f	ʒu
=6	=6
1e	ſin-
1c}	-gen.
=7	=7
{2d	Fa-
2d	-la-
2e	-de-
2f#X	-ri-
=8	=8
1g	-dum!
2r}	.
==	==
!!!GTL: Einige historisch-politische Lieder
!!!AGN: Romanze, Ballade, Lied, Kriegslied
!! Hainhofer Lautenbuch I (1603) Bl. 25.
!!!ONB: ESAC (Essen Associative Code) Database: ALTDEU
!!!AMT: simple quadruple
!!!AIN: vox
!!!EED: Helmut Schaffrath
!!!EEV: 1.0
!!!URL-scan: https://rosdok.uni-rostock.de/mcrviewer/recordIdentifier/rosdok_ppn738218359/iview2/phys_0586.iview2?x=178.71856788692526&y=1851.8792877662927&scale=0.7083010262257697&rotation=0&layout=singlePageLayout
!!!ENC: Anna Maria Matuszewska
!!!EEV: 2024/15/03
*-	*-
